X:1
T: Billy O'Rourke
C:
R:Jig
Q:180
K:D
M:6/8
L:1/16
|:fe|d4B2 B2c2B2|A4A2 A4A2|B4B2 B2c2B2|g6 f4e2|
d4B2 B2c2B2|A4A2 A4A2|B2c2d2 e2c2A2|f6 f4:|
|:A2|d4e2 f4g2|a4b2 a4f2|d4e2 f4g2|a6 f4a2|
b4b2 a4a2|g2a2g2 f4e2|d4B2 B2c2B2|g6 f4e2:|
